.local/share/icons/Gruvbox-Plus-Dark/apps/16/emoji-travel.svg

<svg xmlns="http://www.w3.org/2000/svg" width="16" height="16" version="1.1">
<defs>
  <style id="current-color-scheme" type="text/css">
   .ColorScheme-Text { color:#ebdbb2; } .ColorScheme-Highlight { color:#458588; }
  </style>
  <linearGradient id="arrongin" x1="0%" x2="0%" y1="0%" y2="100%">
   <stop offset="0%" style="stop-color:#d79921; stop-opacity:1"/>
   <stop offset="100%" style="stop-color:#b57614; stop-opacity:1"/>
  </linearGradient>
  <linearGradient id="aurora" x1="0%" x2="0%" y1="0%" y2="100%">
   <stop offset="0%" style="stop-color:#83a598; stop-opacity:1"/>
   <stop offset="100%" style="stop-color:#b16286; stop-opacity:1"/>
  </linearGradient>
  <linearGradient id="fitdance" x1="0%" x2="0%" y1="0%" y2="100%">
   <stop offset="0%" style="stop-color:#8ec07c; stop-opacity:1"/>
   <stop offset="100%" style="stop-color:#458588; stop-opacity:1"/>
  </linearGradient>
  <linearGradient id="oomox" x1="0%" x2="0%" y1="0%" y2="100%">
   <stop offset="0%" style="stop-color:#458588; stop-opacity:1"/>
   <stop offset="100%" style="stop-color:#928374; stop-opacity:1"/>
  </linearGradient>
  <linearGradient id="rainblue" x1="0%" x2="0%" y1="0%" y2="100%">
   <stop offset="0%" style="stop-color:#b8bb26; stop-opacity:1"/>
   <stop offset="100%" style="stop-color:#076678; stop-opacity:1"/>
  </linearGradient>
  <linearGradient id="sunrise" x1="0%" x2="0%" y1="0%" y2="100%">
   <stop offset="0%" style="stop-color: #fe8019; stop-opacity:1"/>
   <stop offset="100%" style="stop-color: #fabd2f; stop-opacity:1"/>
  </linearGradient>
  <linearGradient id="telinkrin" x1="0%" x2="0%" y1="0%" y2="100%">
   <stop offset="0%" style="stop-color: #83a598; stop-opacity:1"/>
   <stop offset="100%" style="stop-color: #83a598; stop-opacity:1"/>
  </linearGradient>
  <linearGradient id="60spsycho" x1="0%" x2="0%" y1="0%" y2="100%">
   <stop offset="0%" style="stop-color: #fb4934; stop-opacity:1"/>
   <stop offset="25%" style="stop-color: #fabd2f; stop-opacity:1"/>
   <stop offset="50%" style="stop-color: #fe8019; stop-opacity:1"/>
   <stop offset="100%" style="stop-color: #689d6a; stop-opacity:1"/>
  </linearGradient>
  <linearGradient id="90ssummer" x1="0%" x2="0%" y1="0%" y2="100%">
   <stop offset="0%" style="stop-color: #b16286; stop-opacity:1"/>
   <stop offset="20%" style="stop-color: #8ec07c; stop-opacity:1"/>
   <stop offset="50%" style="stop-color: #fabd2f; stop-opacity:1"/>
   <stop offset="100%" style="stop-color: #458588; stop-opacity:1"/>
  </linearGradient>
  <linearGradient id="cyberneon" x1="0%" x2="0%" y1="0%" y2="100%">
    <stop offset="0" style="stop-color:#83a598; stop-opacity:1"/>
    <stop offset="1" style="stop-color:#b16286; stop-opacity:1"/>
  </linearGradient>
 </defs>
 <path style="fill:currentColor" class="ColorScheme-Text" d="M 3 1 C 2.272417 1 1.6701653 2.4994719 1.53125 4.5019531 A 1 1 0 0 0 1.5 4.5 A 1 1 0 0 0 0.5 5.5 A 1 1 0 0 0 0.75390625 6.1621094 C 0.28184094 6.4175964 0 6.6991207 0 7 L 0 11 L 0 14.5 C 0 14.777 0.223 15 0.5 15 L 2.0683594 15 C 2.3453594 15 2.5683594 14.777 2.5683594 14.5 L 2.5683594 12.462891 C 3.9945312 12.793792 5.8918131 13 8 13 C 10.108187 13 12.005469 12.793792 13.431641 12.462891 L 13.431641 14.5 C 13.431641 14.777 13.654641 15 13.931641 15 L 15.5 15 C 15.777 15 16 14.777 16 14.5 L 16 11 L 16 7 C 16 6.6994235 15.719217 6.4173985 15.248047 6.1621094 A 1 1 0 0 0 15.5 5.5 A 1 1 0 0 0 14.5 4.5 A 1 1 0 0 0 14.46875 4.5 C 14.329586 2.4984661 13.727354 1 13 1 L 3 1 z M 3.3359375 2 L 12.664062 2 C 13.127161 2 13.5 3.561 13.5 5.5 C 13.5 5.5180219 13.498111 5.5328258 13.498047 5.5507812 C 12.06547 5.2111562 10.139267 5 8 5 C 5.8609137 5 3.9344939 5.209254 2.5019531 5.5488281 C 2.5018938 5.5315594 2.5 5.51733 2.5 5.5 C 2.5 3.561 2.8728419 2 3.3359375 2 z M 8 6 C 11.878 6 15 6.6432642 15 7.4433594 L 15 10.556641 C 15 11.356736 11.878 12 8 12 C 4.122 12 1 11.356736 1 10.556641 L 1 7.4433594 C 1 6.6432642 4.122 6 8 6 z M 3 8 A 1 1 0 0 0 2 9 A 1 1 0 0 0 3 10 A 1 1 0 0 0 4 9 A 1 1 0 0 0 3 8 z M 13 8 A 1 1 0 0 0 12 9 A 1 1 0 0 0 13 10 A 1 1 0 0 0 14 9 A 1 1 0 0 0 13 8 z M 5.5 10 C 5.223 10 5 10.223 5 10.5 C 5 10.777 5.223 11 5.5 11 L 10.5 11 C 10.777 11 11 10.777 11 10.5 C 11 10.223 10.777 10 10.5 10 L 5.5 10 z"/>
</svg>

<svg width="16" height="16" version="1.1" xmlns="http://www.w3.org/2000/svg">
  <defs>
    <style id="current-color-scheme" type="text/css">.ColorScheme-Text { color:#ebdbb2; } .ColorScheme-Highlight { color:#458588; }</style>
  </defs>
  <path class="ColorScheme-Text" d="m3 1c-0.7276 0-1.33 1.499-1.469 3.502-0.01041-8.141e-4 -0.02082-0.001465-0.03125-0.001953-0.5523 0-1 0.4477-1 1 9.136e-4 0.2443 0.09123 0.4798 0.2539 0.6621-0.4721 0.2555-0.7539 0.537-0.7539 0.8379v7.5c0 0.277 0.223 0.5 0.5 0.5h1.568c0.277 0 0.5-0.223 0.5-0.5v-2.037c1.426 0.3309 3.323 0.5371 5.432 0.5371 2.108 0 4.005-0.2062 5.432-0.5371v2.037c0 0.277 0.223 0.5 0.5 0.5h1.568c0.277 0 0.5-0.223 0.5-0.5v-7.5c0-0.3006-0.2808-0.5826-0.752-0.8379 0.162-0.1826 0.2516-0.4181 0.252-0.6621 0-0.5523-0.4477-1-1-1-0.01042-1.628e-4 -0.02083-1.628e-4 -0.03125 0-0.1392-2.002-0.7414-3.5-1.469-3.5h-10zm0.3359 1h9.328c0.4631 0 0.8359 1.561 0.8359 3.5 0 0.01802-0.001853 0.03283-0.001953 0.05078-1.433-0.3396-3.359-0.5508-5.498-0.5508s-4.066 0.2093-5.498 0.5488c-5.93e-5 -0.01727-0.001953-0.0315-0.001953-0.04883 0-1.939 0.3728-3.5 0.8359-3.5zm-0.3359 6a1 1 0 0 1 1 1 1 1 0 0 1-1 1 1 1 0 0 1-1-1 1 1 0 0 1 1-1zm10 0a1 1 0 0 1 1 1 1 1 0 0 1-1 1 1 1 0 0 1-1-1 1 1 0 0 1 1-1zm-7.5 2h5c0.277 0 0.5 0.223 0.5 0.5s-0.223 0.5-0.5 0.5h-5c-0.277 0-0.5-0.223-0.5-0.5s0.223-0.5 0.5-0.5z" fill="currentColor"/>
</svg>
